packages/gestalt-icons-android/vr-theme/ic_vr_paper-clip_gestalt.svg

<svg width="24" height="24" viewBox="0 0 24 24" fill="none" xmlns="http://www.w3.org/2000/svg">
<path fill-rule="evenodd" clip-rule="evenodd" d="M19.0429 3.45709C17.9146 2.32884 16.0854 2.32884 14.9571 3.45709L4.70711 13.7071C2.88849 15.5257 2.88849 18.4743 4.70711 20.2929C6.52572 22.1115 9.47428 22.1115 11.2929 20.2929L20.2929 11.2929L21.7071 12.7071L12.7071 21.7071C10.1074 24.3068 5.89256 24.3068 3.29289 21.7071C0.693231 19.1074 0.693232 14.8925 3.2929 12.2929L13.5429 2.04288C15.4522 0.133574 18.5478 0.133575 20.4571 2.04288C22.3664 3.95219 22.3664 7.04779 20.4571 8.95709L10.6213 18.7929C9.44975 19.9645 7.55025 19.9645 6.37868 18.7929L6.20711 18.6213C5.03554 17.4497 5.03553 15.5502 6.20711 14.3787L14.7929 5.79288L16.2071 7.20709L7.62132 15.7929C7.2308 16.1834 7.2308 16.8166 7.62132 17.2071L7.79289 17.3787C8.18342 17.7692 8.81658 17.7692 9.20711 17.3787L19.0429 7.54288C20.1712 6.41462 20.1712 4.58535 19.0429 3.45709Z" fill="black"/>
</svg>

<svg xmlns="http://www.w3.org/2000/svg" width="24" height="24"><path d="M19.04 3.46a2.9 2.9 0 0 0-4.08 0L4.7 13.7a4.66 4.66 0 0 0 6.58 6.58l9-9 1.42 1.42-9 9a6.66 6.66 0 1 1-9.42-9.42L13.54 2.04a4.89 4.89 0 1 1 6.92 6.92l-9.84 9.83a3 3 0 0 1-4.24 0l-.17-.17a3 3 0 0 1 0-4.24l8.58-8.59 1.42 1.42-8.59 8.58a1 1 0 0 0 0 1.42l.17.17a1 1 0 0 0 1.42 0l9.83-9.84a2.9 2.9 0 0 0 0-4.08"/></svg>
